!!!!SEGMENT: pl-wumfc--r313--004_paderewski-ignacy-jan--vocal-pieces-op-7-chlopca-mego-mi-zabrali.krn
!!!cenid: 18xx:3389
!!!COM: Paderewski, Ignacy Jan
!!!COM-rismID: pe30029943
!!!CDT: 1860/11/18-1941/06/29
!!!CNT: Polish
!!!GTL: [Vocal pieces op. 7]
!!!OTL: Chłopca mego mi zabrali
!!!OMV: 004
!!!PDT:
!!!AGN:
!!!SMS-siglum: PL-Wumfc
!!!SMS-shelfmark: R313
!!!SMS-shelfwork: 001-004 G
!!!SMS-variant:
!!!SMS-altvar:
!!!NIFC-rismSourceID: 1001159534
!!!NIFC-rismChildID: 1001159538
!!!NIFC-islandoraID: pl-wumfc:730
!!!URL-pdf-islandora: https://repozytorium.nifc.pl/islandora/object/pl-wumfc%3A730/datastream/PDF/view
!!!URL-scan: https://polish.musicsources.pl/pl/lokalizacje/galeria/rekopisy/4734 @EN{Scan on Polish Music Sources Website} @PL{Skany w portalu Dziedzictwo Muzyki Polskiej w otwartym dostępie}
!!!ONB-nifc:
!!!AIN: 1 piano 1 vox
!!!key: g
!!!OMD: Andantino
!!!filter-modern: sic -sq | shed -e "s/TX(.*):t=P:/tx$1:t=P:/LG" | shed -k -e "s/LO:N:vis/LO:n:vis:/L" | shed -e "s/^(\d+[\/\\]right)/$1yy/I;s/^(\d+[\/\\]left)/$1yy/I" | shed -e "s/:rj/:RJ/L" | shed -k -e "s/:TUP:/:tup:/L" | shed -k -e "s/([^a-gA-Gn#X-])[<>]/$1/g" | shed -e "s/LO:DY:(a|b|rj)/LO:dy:$1/L" | shed -e "s/-//B" | autostem -r | modori -m | humtr -p
**kern	**kern	**dynam	**kern	**text	**text	**dynam
*part2	*part2	*part2	*part1	*part1	*part1	*part1
*staff3	*staff2	*	*staff1	*staff1	*staff1	*
*Ipiano	*Iempty	*	*Ivox	*	*	*
*I"Piano	*	*	*I"Voce	*	*	*
*I'pf	*	*	*I'V	*	*	*
*mI"Pianoforte	*mI"Pianoforte	*	*mI"Voce	*	*	*
*ICklav	*	*	*ICvox	*	*	*
*IGacmp	*IGacmp	*	*IGsolo	*	*	*
*clefF4	*clefG2	*	*clefG2	*	*	*
*k[b-e-]	*k[b-e-]	*	*k[b-e-]	*	*	*
*g:	*g:	*	*g:	*	*	*
!LO:MO:mod=*M2/4	!LO:MO:mod=*M2/4	!	!LO:MO:mod=*M2/4	!	!	!
*M	*M	*	*M	*	*	*
=1	=1	=1	=1	=1	=1	=1
2GG\	4d/ 4B-</ 4G</ 4D</	.	8g/	Chło-	Nah-	.
.	.	.	8g/	-pca	-men	.
.	4c/ 4G</ 4E-</	.	8a/	me-	ihn	.
.	.	.	8cc\	-go	mir	.
=2	=2	=2	=2	=2	=2	=2
2GG/	4d/ 4B-</ 4G</ 4D</	.	8b-\	mi	mei-	.
.	.	.	8a/	za-	-nen	.
.	4e-/ 4B-</ 4G</ 4E-</	.	8g/	-bra-	Lie-	.
.	.	.	8b-\	-li	-ben,	.
=3	=3	=3	=3	=3	=3	=3
!	!LO:TX:t=P:ubytki:problem	!	!	!	!	!
[>4GG\	4f/ 4d/ 4B-/ 4A</ 4D</	.	4dd\	Ma-	mein	.
!	!	!	!LO:TX:t=P:problem=mixed beam	!	!	!
4GG\] 4GGG\	4g/ 4c/ 4A/^	.	(8cc\L	-tu-	Mutt-	.
.	.	.	8g/J)	.	.	.
=4	=4	=4	=4	=4	=4	=4
2GG\ 2GGG\	2g/ 2d/ 2B-</ 2G</	.	4.g/	-lu!	-chen!	.
.	.	.	8r	.	.	.
=5	=5	=5	=5	=5	=5	=5
4D\ 4GG\	4d/ 4B-</ 4G</	.	8g/	W świat	Ha-	.
.	.	.	8g/	da-	-ben	.
4F\ 4FF\	4f/ 4c</ 4A</	.	8a/	-le-	ihn	.
.	.	.	8cc\	-ki	weit	.
!!LO:LB:g=original
=6	=6	=6	=6	=6	=6	=6
4F\ 4BB-\	4f/ 4d/ 4B-/	.	8b-\	go	weg-	.
.	.	.	8cc\	po-	-ge-	.
4G\ 4GG\	4b-/ 4en/ 4d/	.	8dd\	-gna-	-trie-	.
.	.	.	8een\	-li	-ben,	.
=7	=7	=7	=7	=7	=7	=7
4A\ 4D\	4a/ 4f/ 4d/	.	8ff\	A	Jam-	.
.	.	.	8ff\	ja	-mer	.
[4AA\ [4DD\^	4a/ 4g/ 4A</	.	8een\	za	wohnt	.
.	.	.	8cc#X\	nim	in	.
=8	=8	=8	=8	=8	=8	=8
*	*^	*	*	*	*	*
2AA\] 2DD\]	4a/ 4f/ 4A</	4rddyy	.	(8dd\L	u-	un-	.
.	.	.	.	16cc\L	.	.	.
.	.	.	.	16b-\J	.	.	.
.	8a/L	8g\L	.	8a/J)	.	.	.
.	8a/J	8e-\J	.	8a/	-mrę	-sern	.
=9	=9	=9	=9	=9	=9	=9	=9
4AA\ 4DD\	8a/	4f\	<	[2a/	z bó-	Hütt-	.
.	(8ff/L	.	.	.	.	.	.
4A\	8ee-/	4g\	.	.	.	.	.
.	8cc#X/J	.	.	.	.	.	.
=10	=10	=10	=10	=10	=10	=10	=10
4.AA\ 4.DD\	8dd/L	4f\	.	4a/]	.	.	.
.	16cc/L	.	.	.	.	.	.
.	16b-/J	.	.	.	.	.	.
.	8a/)	8g\L	.	8a/	-lu	-chen.	.
8AA\	8a/J	8e-\J	.	8r	.	.	.
*	*v	*v	*	*	*	*	*
!!LO:LB:g=original
=11	=11	=11	=11	=11	=11	=11
2D/ 2AA/ 2DD/	2dd/ 2a/ 2d/	.	8d/	Da-	Go-	.
.	.	.	8d/	-łam	-ttes	.
.	.	.	8e-X/	na	Trost	.
.	.	.	8g/	mszę	ist	.
=12	=12	=12	=12	=12	=12	=12
!LO:SIC:s=8DL	!LO:SIC:s=8dL	!	!	!	!	!
8D\vL	8d/vL	.	8f#X/	sznur	nur	.
(8D\	(8d/	<	8f#/	ko-	geb-	.
8E-X\	8e-X/	.	8g/	-ra-	-lie-	.
8G\J)	8g/J)	.	8b-\	-li	-ben,	.
=13	=13	=13	=13	=13	=13	=13
2G-X\	2g-X/	[	8a/	Nie-	möcht	.
.	.	.	8b-\	-chaj	Er	.
.	.	.	8cc\	Pan	schü-	.
.	.	.	8ee-\	Bóg	-tzen	.
=14	=14	=14	=14	=14	=14	=14
!	!	!LO:DY:a	!	!	!	!
!	!	!LO:DY:a	!	!	!	!
4.C/ 4.CC/	4.ee-/ 4.b-/ 4.e-/	sf sf	8dd\	go	auch	.
.	.	.	8cc\	o-	den	.
.	.	.	8b-\	-ca-	Lie-	.
8F\ 8FF\	8f/ 8e-/ 8A</	.	8a/	-li	-ben,	.
=15	=15	=15	=15	=15	=15	=15
4F\ 4BB-\	4dd/ 4f/ 4d/ 4F</	.	4b-\	Ma-	o	.
4D\ 4DD\	4f#X/ 4d/ 4c/ 4F#X</	.	(8a/L	-tu-	Mutt-	.
.	.	.	8f#X/J)	.	.	.
!!LO:LB:g=original
=16	=16	=16	=16	=16	=16	=16
8D\ 8GG\	8g/ 8d/ 8B-/ 8G</;	.	2g/	-lu	-chen!	.
(8d\L	(8dd\L	p	.	.	.	.
8e-\	8ee-\	.	.	.	.	.
16d\L	16dd\L	.	.	.	.	.
16c\JJ)	16cc\JJ)	.	.	.	.	.
=17	=17	=17	=17	=17	=17	=17
8B-\L	8b-\L	.	2r	.	.	.
(8B-\	(8b-\	.	.	.	.	.
8c\	8cc\	.	.	.	.	.
16B-\L	16b-\L	.	.	.	.	.
16G\JJ)	16g/JJ)	.	.	.	.	.
=18	=18	=18	=18	=18	=18	=18
!	!	!	!LO:MO:mod=!LO&colon;TX&colon;i&colon;t=animato	!	!	!
!	!	!	!LO:TX:a:t=animato.	!	!	!
8E-\	8g/L 8B-/ 8G/	.	8b-\	Do	Ein	.
(32EE-/LLL	8g/J 8B-/ 8G/	<	8b-\	sze-	ge-	.
32BB-/	.	.	.	.	.	.
32DD/	.	.	.	.	.	.
32BB-/JJJ)	.	.	.	.	.	.
8AA-X/	8e-/L 8c/ 8A-X/	[	8cc\	-re-	-reiht	.
(32EE-/LLL	8f/J 8c/ 8A-/	<	(16b-\LL	-gu	steht	.
32AAA-X/	.	.	.	.	.	.
32EE-/	.	.	16a-X/JJ)	.	.	.
32AAA-/JJJ	.	[[	.	.	.	.
=19	=19	=19	=19	=19	=19	=19
8EE-/)	8g/L 8B-/ 8G/	.	8b-\	po-	er	.
(32EE-/LLL	8g/J 8B-/ 8G/	<	8b-\	-szedł	in	.
32BB-/	.	.	.	.	.	.
32EE-/	.	.	.	.	.	.
32BB-/JJJ	.	.	.	.	.	.
8AA-X/)	8e-/L 8c/ 8A-X/	.	8cc\	z bro-	Waf-	.
(32DD/LLL	8f/J 8c/ 8A-/	[	(16b-\LL	-nią	-fen,	.
32D\	.	.	.	.	.	.
32DD/	.	.	16a-X/JJ)	.	.	.
32D\JJJ	.	.	.	.	.	.
=20	=20	=20	=20	=20	=20	=20
8GG/L)	8g/ 8Bn/ 8G/	.	4g/	Mój	o	.
(32GG/LL	8dd/L 8a-X/ 8f/	.	.	.	.	.
32G\	.	.	.	.	.	.
32GG/	.	.	.	.	.	.
(32G\JJJ	.	.	.	.	.	.
4G\ 4D\))	(8ee-/ 8a-/ [[8f/	.	(4g/	Bo-	Zeim-	.
.	16dd\L	.	.	.	.	.
.	16bn\JJ	.	.	.	.	.
!!LO:PB:g=original
=21	=21	=21	=21	=21	=21	=21
*	*^	*	*	*	*	*
(8GGG/	8dd/	8a\ 8f\]])	.	4g/)	.	.	.
32GG/LLL	8dd/	8a-X\ 8f\	.	.	.	.	.
32G\	.	.	.	.	.	.	.
32GG/	.	.	.	.	.	.	.
(32G\JJJ)	.	.	.	.	.	.	.
4G\ 4D\)	(8ee-/^L	4a-\ 4f\	.	8g/	-że	-mel,	.
.	16dd/L	.	.	8r	.	.	.
.	16bn/JJ)	.	.	.	.	.	.
*	*v	*v	*	*	*	*	*
=22	=22	=22	=22	=22	=22	=22
!	!LO:MO:mod=!LO&colon;TX&colon;i&colon;t=marcato	!	!	!	!	!
!	!LO:TX:a:t=marcato	!	!	!	!	!
(8C/ 8EE-/	16r	.	8gg\	Tam	was	.
.	16gg\ 16ee-\ 16g\	.	.	.	.	.
8D\L	16r	.	8ff\	śmierć	kann	.
.	16g/ 16f/ 16G/	.	.	.	.	.
8E-\	16r	.	8ee-\	pe-	ich	.
.	16gg\ 16ee-\ 16g\	.	.	.	.	.
8G\J	16r	.	8dd\	-wna	da-	.
.	16g/ 16f/ 16Bn/	.	.	.	.	.
=23	=23	=23	=23	=23	=23	=23
8G\L	16r	.	8cc\	po-	-ge-	.
.	16cc/ 16g/ 16e-/	.	.	.	.	.
8An\J	16r	.	8cc\	-szedł-	-gen	.
.	16g/ 16f/ 16c/	.	.	.	.	.
4Bn\)	16r	.	8ee-\	-po-	schaf-	.
.	16g/ 16f/ 16e-/	.	.	.	.	.
.	16r	.	8g/	-nią	-fen,	.
.	16g/ 16f/ 16d/	.	.	.	.	.
=24	=24	=24	=24	=24	=24	=24
*	*^	*	*	*	*	*
8r	16r	4c\^	.	8cc\	mi-	wenn	.
.	16cc/ 16g/ 16e-/	.	.	.	.	.	.
4E-\	16r	.	.	8b-\	-łość	er	.
.	16cc/ 16g/ 16e-/	.	.	.	.	.	.
.	16r	4e-\^	.	8a/	mo-	fällt	.
.	16ee-/ 16cc/ 16g/	.	.	.	.	.	.
[8EE-/	16r	.	.	8g/	-ja	im	.
.	16ee-/ 16cc/ 16g/	.	.	.	.	.	.
=25	=25	=25	=25	=25	=25	=25	=25
*	*	*	*	*^	*	*	*
8EE-/]	16r	2g-X\	.	4.ryy	8g-X/	nic	Sicht	.
.	16gg-X/ 16ee-/ 16b-/	.	.	.	.	.	.	.
!	!LO:N:vis=4	!	!	!	!	!	!	!
4.EE-/	16r	.	.	.	8g-/	nie	icht	.
.	16gg-/ 16ee-/ 16b-/	.	.	.	.	.	.	.
!	!	!	!	!LO:TX:a:t=ritar.	!LO:N:vis=8.	!	!	!
.	4gg-/ 4ee-/ 4b-/	.	.	.	8b-/	mo-	gefüm-	.
.	.	.	.	8c\\	8e-//	-że	-mel,	.
*	*	*	*	*v	*v	*	*	*
*	*v	*v	*	*	*	*	*
!!LO:LB:g=original
=26	=26	=26	=26	=26	=26	=26
!!!OMD:
!!!OMD-mod: Più lento
!	!LO:TX:a:t=Piu lento:mod=	!	!	!	!	!LO:DY:a
4E-X\	4g-X/ 4e-/ 4B-/ 4G-X</	.	8g-X/	a-	mei-	p
!	!	!	!LO:MO:mod=!LO&colon;TX&colon;i&colon;t=doloroso	!	!	!
!	!	!	!LO:TX:a:t=doloroso.	!	!	!
.	.	.	8g-/	-ni	-ne	.
4D-X\	4g-/ 4f-X/ 4B-</ 4G-</	.	8a-X/	łzy	Thra-	.
.	.	.	8b-\	go	-nen	.
=27	=27	=27	=27	=27	=27	=27
4C-X\	4g-X/ 4e--/ 4c-X</ 4G-X</	.	8cc-X\	nie	eit-	.
.	.	.	8ee--\	za-	-le	.
4BB--\	4g-/ 4d-X</ 4G-</	.	8dd-X\	-sło-	Waf-	.
.	.	.	8g-X/	-nią	-fen,	.
=28	=28	=28	=28	=28	=28	=28
2AA-X\	2g-X/ 2cn</ 2G-X</	.	8g-X/	Przed	will	.
.	.	.	8g-/	za-	der	.
.	.	.	8ee-\	-wis-	Tod	.
.	.	.	8ee-\	-tnej	ihn	.
=29	=29	=29	=29	=29	=29	=29
4AA-X\	2f/ 2c</ 2F</	.	8dd\	śmier-	mit	.
.	.	.	8cc\	-ci	sich	.
4DD\	.	.	8b-\	dło-	raf-	.
.	.	.	8a-X/	-nią	-fen,	.
=30	=30	=30	=30	=30	=30	=30
8GG\	8g/ 8Bn</ 8G</	.	4g/	Mój	O	.
(8d\	(8dd\L	.	.	.	.	.
8g\L	8gg\	.	[4g/	Bo-	Him-	.
16f\L	16ff\L	.	.	.	.	.
16e-\JJ	16ee-\JJ	.	.	.	.	.
!!LO:LB:g=original
=31	=31	=31	=31	=31	=31	=31
8f\L)	8ff\L)	.	4g/]	.	.	.
8d\	(8dd\	.	.	.	.	.
8e-\	8ee-\	.	4g/	-że	-mel!	.
16d\L	16dd\L	.	.	.	.	.
16c\JJ	16cc\JJ	.	.	.	.	.
=32	=32	=32	=32	=32	=32	=32
8d\	4dd\)	.	2r	.	.	.
!	!	!LO:DY:a	!	!	!	!
(8D\L	.	<	.	.	.	.
8E-\	(8cc\L	.	.	.	.	.
8F#X\J)	16b-\L	[[	.	.	.	.
.	16a/JJ)	.	.	.	.	.
=33	=33	=33	=33	=33	=33	=33
*	*^	*	*	*	*	*
4G\	(8b-/L	4d\	.	2r	.	.	.
.	8g/)	.	.	.	.	.	.
4E-\	(8cc/	4c\	.	.	.	.	.
.	8g/J)	.	.	.	.	.	.
*	*v	*v	*	*	*	*	*
=34	=34	=34	=34	=34	=34	=34
2D\	2a/ 2f#X/ 2d/ 2A</	p	2r	.	.	.
=35	=35	=35	=35	=35	=35	=35
2D\ 2AA\ 2DD\	2a/ 2f#X/ 2d/ 2A</	pp	2r	.	.	.
=36	=36	=36	=36	=36	=36	=36
!!!OMD:
!!!OMD-mod: Tempo I
!	!	!LO:DY:a	!LO:TX:a:t=Tempo I:mod=	!	!	!
!	!	!LO:MO:null:mod=.	!	!	!	!
8GG/'L	4g/ 4B-/ 4G/	pp	8g/	Nie	Schwer-	.
8G\'	.	.	8g/	py-	-lich	.
8F\'	4c/ 4A/	.	8a/	-ta-	wird	.
(16En\L	.	.	8cc\	-ją	der	.
16E-X\JJ	.	.	.	.	.	.
=37	=37	=37	=37	=37	=37	=37
8D\L)	8d/L 8B-/	.	8b-\	o	Feind	.
8C\'	8e-/J 8c/	.	8a/	to	be-	.
8BB-\'	4g/ 4d/	.	8g/	wro-	-kla-	.
8GG/'J	.	.	8b-\	-gi	-gen	.
=38	=38	=38	=38	=38	=38	=38
8GGG\L	4b-/ 4g/ 4B-/	.	4dd\	Kto	den	.
8GG\J	.	.	.	.	.	.
(16E-\LL	4gg\ 4cc\ 4a\	.	8cc\L	gi-	Ta-	.
16GG\	.	.	.	.	.	.
16E-\	.	.	8g/J	.	.	.
16GG\JJ)	.	.	.	.	.	.
=39	=39	=39	=39	=39	=39	=39
8G\L	4gg\ 4b-\ 4g\	.	4.g/	-nie	-dten,	.
8d\J	.	.	.	.	.	.
4r	8g/L	.	.	.	.	.
.	16f/L	.	8r	.	.	.
.	16e-/JJ	.	.	.	.	.
=40	=40	=40	=40	=40	=40	=40
(8GG/L	4d/ 4B-/	.	8g/	Czy	A-	.
8G\	.	.	8g/	jest	-ber	.
8F\	4f/ 4c/ 4A/	.	8a/	ser-	Freund	.
16En\L	.	.	8cc\	-com	und	.
16E-X\JJ)	.	.	.	.	.	.
!!LO:PB:g=original
=41	=41	=41	=41	=41	=41	=41
8D\L	4f/ 4d/ 4B-/	.	8b-\	lu-	Schwe-	.
8C\	.	.	8cc\	-dzkim	-ster	.
8BB-\	4b-/ 4g/ 4d/ 4B-/	.	8dd\	dro-	tra-	.
8GG\J	.	.	8een\	-gi?	-gen	.
=42	=42	=42	=42	=42	=42	=42
4AA\ 4DD\	8a/L 8f/ 8d/ 8A/	.	8ff\	Czy	Herz-	.
.	8A/J	.	8ff\	płacz	-lein	.
4g\^	4aa\ 4a\	.	8een\	sio-	um	.
.	.	.	8cc#X\	-stry	den	.
=43	=43	=43	=43	=43	=43	=43
4AA\ 4DD\	4a/ 4f/ 4d/ 4A/	.	(8dd\L	za-	Tod	.
.	.	.	16cc\L	.	.	.
.	.	.	16b-\J	.	.	.
8g\L	8aa/L 8a/	.	8a/J)	.	.	.
8en\J	8aa/J 8a/	.	8a/'	-nim	be-	.
=44	=44	=44	=44	=44	=44	=44
*	*^	*	*	*	*	*
4AA\ 4DD\	8ff/L	4a\ 4f\	.	[2a/	pły-	-droh-	.
.	8ff/	.	.	.	.	.	.
4B-\^	8een/	4g\	.	.	.	.	.
.	8cc#X/J	.	.	.	.	.	.
=45	=45	=45	=45	=45	=45	=45	=45
4AA/ 4DD/	8dd/L	4f\	.	4a/]	.	.	.
.	16ccn/L	.	.	.	.	.	.
.	16b-/J	.	.	.	.	.	.
4A\	8a/J	8g\L	.	8a/	-nie	-ten	.
.	8a/	8e-\J	.	8r	.	.	.
*	*v	*v	*	*	*	*	*
!!LO:LB:g=original
=46	=46	=46	=46	=46	=46	=46
2D\ 2AA\ 2DD\	2dd/ 2a/ 2d/	.	8d/	Czy	Um	.
.	.	.	8d/	u-	die	.
.	.	.	8e-/	-mie-	Mut-	.
.	.	.	8g/	-ra	-ter	.
=47	=47	=47	=47	=47	=47	=47
8D\L	8d/L	.	8f#X/	ma-	stirbt	.
(8D\	(>8d/	.	8f#/	-tka	vor	.
8E-\	8e-/	.	8g/	z trwo-	Za-	.
8G\J)	8g/J)	.	8b-\	-gi	-gen,	.
=48	=48	=48	=48	=48	=48	=48
2G-X\	2g-X/	.	8a/	Kie-	kann	.
.	.	.	8b-\	-dy	sie	.
.	.	.	8cc\	py-	ihn	.
.	.	.	8ee-\	-ta	nicht	.
=49	=49	=49	=49	=49	=49	=49
4.C\ 4.CC\	4.ee-/ 4.b-/ 4.e-/	.	8dd\	śmier-	mehr	.
.	.	.	8cc\	-ci	er	.
.	.	.	8b-\	sro-	fra-	.
8FF\	8f/ 8e-/ 8A/	.	8a/	-giej	-gen,	.
=50	=50	=50	=50	=50	=50	=50
4F\ 4BB-\	4dd/ 4f/ 4d/	.	4b-\	Kto	den	.
4D\ 4DD\	4f#X/ 4d/ 4c/ 4F#X/	.	(8a/L	gi-	To-	.
.	.	.	8f#X/J)	.	.	.
!!LO:LB:g=original
=51	=51	=51	=51	=51	=51	=51
8D\ 8GG\	8g/ 8d/ 8B-/ 8G</;	.	2g/	-nie	-dten!	.
(8d\L	(8dd\L	.	.	.	.	.
8e-\	8ee-\	.	.	.	.	.
16d\L	16dd\L	.	.	.	.	.
16c\JJ	16cc\JJ	.	.	.	.	.
=52	=52	=52	=52	=52	=52	=52
8B-\L)	8b-\L)	.	2r	.	.	.
(8B-\	(8b-\	.	.	.	.	.
8c\	8cc\	.	.	.	.	.
16B-\L	16b-\L	.	.	.	.	.
16G\JJ)	16g/JJ)	.	.	.	.	.
=53	=53	=53	=53	=53	=53	=53
8E-\	8g/L 8B-/ 8G/	.	8b-\	Na	Ku-	.
(32EE-\LLL	8g/J 8B-/ 8G/	.	8b-\	ku-	-geln	.
32BB-\	.	.	.	.	.	.
32EE-/	.	.	.	.	.	.
32BB-\JJJ	.	.	.	.	.	.
8AA-X\)	8e-/L 8c/ 8A-X/	.	8cc\	-la-	flo-	.
(32EE-\LLL	8e-/J 8c/ 8A-/	.	(16b-\LL	-mi	-gen	.
32AAA-X\	.	.	.	.	.	.
32EE-\	.	.	16a-X/JJ)	.	.	.
32AAA-\JJJ	.	.	.	.	.	.
=54	=54	=54	=54	=54	=54	=54
8EE-\)	8g/L 8B-/ 8G/	.	8b-\	za-	dicht	.
(32EE-\LLL	8g/J 8B-/ 8G/	.	8b-\	-o-	um	.
32BB-\	.	.	.	.	.	.
32EE-\	.	.	.	.	.	.
32BB-\JJJ	.	.	.	.	.	.
8AA-X\)	8e-/L 8c/ 8A-X/	.	8cc\	-ra-	meih-	.
(32DD\LLL	8e-/J 8c/ 8A-/	.	(16b-\LL	-nej	-ten	.
32D\	.	.	.	.	.	.
32DD\	.	.	16a-X\JJ)	.	.	.
32D\JJJ	.	.	.	.	.	.
=55	=55	=55	=55	=55	=55	=55
8GG\)	8g/ 8Bn/ 8G/	.	4g/	na	den	.
(32GG\LLL	8dd/L 8a-X/ 8f/	.	.	.	.	.
32G\	.	.	.	.	.	.
32GG\	.	.	.	.	.	.
32G\JJJ	.	.	.	.	.	.
4G\ 4D\)	(<8ee-/ (<8a-/ 8f^/	.	[4g/	ro-	Ot-	.
.	16dd/L	.	.	.	.	.
.	16bn/JJ	.	.	.	.	.
!!LO:LB:g=original
=56	=56	=56	=56	=56	=56	=56
(8GGG\L	8dd/ 8a-/) 8f/)	.	4g/]	.	.	.
32GG\LL	8dd/ 8a-X/ 8f/	.	.	.	.	.
32G\	.	.	.	.	.	.
32GG\	.	.	.	.	.	.
[32G\JJJ)	.	.	.	.	.	.
4G\] 4D\	8ee-/L 8a-/ 8f^/	.	4g/	-li	-cker.	.
.	(16dd/L	.	.	.	.	.
.	16bn/JJ)	.	.	.	.	.
=57	=57	=57	=57	=57	=57	=57
8C\L 8EE-\	16r	.	8gg\	Ma	Him-	.
.	16gg/ 16ee-/ 16g/	.	.	.	.	.
8D\	16r	.	8ff\	paść	-mel!	.
.	16g/ 16f/ 16G/	.	.	.	.	.
8E-\	16r	.	8ee-\	we	hör	.
.	16gg/ 16cc/ 16g/	.	.	.	.	.
8G\J	16r	.	8dd\	krwi	mein	.
.	16g/ 16f/ 16Bn/	.	.	.	.	.
=58	=58	=58	=58	=58	=58	=58
8G\L	16r	.	8cc\	mój	brün-	.
.	16cc/ 16g/ 16e-/	.	.	.	.	.
8A\J	16r	.	8cc\	ko-	-stig	.
.	16g/ 16f/ 16c/	.	.	.	.	.
4Bn\	16r	.	8ee-\	-cha-	Be-	.
.	16g/ 16f/ 16e-/	.	.	.	.	.
.	16r	.	8g/	-ny	-ten,	.
.	16g/ 16f/ 16d/	.	.	.	.	.
=59	=59	=59	=59	=59	=59	=59
*	*^	*	*	*	*	*
8r	16r	4c^\	.	8cc\	Czy-	Gott,	.
.	16cc/ 16g/ 16e-/	.	.	.	.	.	.
4E-\	16r	.	.	8b-\	-liż	er-	.
.	16cc/ 16g/ 16e-/	.	.	.	.	.	.
.	16r	4e-^\	.	8a/	na	-hal-	.
.	16ee-/ 16cc/ 16g/	.	.	.	.	.	.
[8EE-/	16r	.	.	8g/	to	-te	.
.	16ee-/ 16cc/ 16g/	.	.	.	.	.	.
=60	=60	=60	=60	=60	=60	=60	=60
8EE-/]	16r	2g-X\	.	8g-X/	Bóg	mir	.
.	16gg-X/ 16ee-/ 16b-/	.	.	.	.	.	.
4.EEE-\	16r	.	.	8g-/	po-	ihn	.
.	16gg-/ 16ee-/ 16b-/	.	.	.	.	.	.
.	4gg-/ 4ee-/ 4b-/	.	.	8.b-/	-zwo-	wac-	.
.	.	.	.	16e-/ 16c/	-li	-ker,	.
*	*v	*v	*	*	*	*	*
!!LO:PB:g=original
=61	=61	=61	=61	=61	=61	=61
!!!OMD:
!!!OMD-mod: Più lento
!	!	!	!LO:TX:a:B:t=Piu lento:mod=	!	!	!
4E-X\	4g-X/ 4f-X/ 4e-/ 4B-/ 4G-X</	.	8g-X/	By	Daſs	.
.	.	.	8g-/	sa-	er	.
4D-X\	4g-/ 4f-X/ 4B-/ 4G-</	.	8a-X/	-mot-	nicht	.
.	.	.	8b-/	-nie	in	.
=62	=62	=62	=62	=62	=62	=62
4C-X\	4g-X/ 4e--/ 4c-X</ 4G-X</	.	8cc-X\	gi-	Blut	.
.	.	.	8ee--\	-nął	und	.
4BB--\	4g-/ 4d-X/ 4G-</	.	8dd-X\	z ra-	Nöt-	.
.	.	.	8g-X/	-ny	-hen	.
=63	=63	=63	=63	=63	=63	=63
!	!	!	!LO:MO:null:mod=!LO&colon;TX&colon;i&colon;t=rit.	!	!	!
!	!LO:TX:a:i:t=ril:mod=rit.	!	!	!	!	!
2AA-X\	2g-X/ 2cn</ 2G-X</	.	8g-X/	Z da-	Eins	.
.	.	.	8g-/	-la	am	.
!	!	!	!LO:TX:a:t=ril.:mod=	!	!	!
.	.	.	8ee-\	two-	sterb'	.
.	.	.	8ee-\	-ich	auf	.
=64	=64	=64	=64	=64	=64	=64
4AAn\ [4DD\	2f#X/ 2d/ 2c</ 2F#X</	.	8dd\	na	dem	.
.	.	.	8cc\	za-	be-	.
[4D\ 4DD\]	.	.	8b-/	-sia-	-sä-	.
.	.	.	8a/	-nej	-ten	.
=65	=65	=65	=65	=65	=65	=65
4G\ 4D\]	4f/ 4d/ 4B-</	.	4b-\	Krwią	Blut-	.
4A\ 4D\	4dd/ 4f#X/ 4d/	.	(8a/L	ro-	-a-	.
.	.	.	8f#X/J)	.	.	.
!!LO:LB:g=original
=66	=66	=66	=66	=66	=66	=66
8G\ 8D\ 8GG\	8dd/ 8g/ 8d/	.	4.g/	-li	-cker.	.
(8d\L	(8dd\L	.	.	.	.	.
8g\	8gg\	.	.	.	.	.
16f\L	16ff\L	.	8r	.	.	.
16e-\JJ	16ee-\JJ	.	.	.	.	.
=67	=67	=67	=67	=67	=67	=67
8d\L)	8dd\L)	.	2r	.	.	.
(8B-\	(8b-\	.	.	.	.	.
8c\	8cc\	.	.	.	.	.
16B-\L	16b-\L	.	.	.	.	.
16A\JJ	16a\JJ	.	.	.	.	.
=68	=68	=68	=68	=68	=68	=68
8G\)	8g/)	p	2r	.	.	.
8r	8g/L 8G'/	.	.	.	.	.
4r	8g/ 8G'/	.	.	.	.	.
.	8g/J 8G'/	.	.	.	.	.
=69	=69	=69	=69	=69	=69	=69
2GG\ 2CC\	8g/L 8en/ 8G/	.	8g/	Spoj-	Jung-	.
.	8g/ 8e/ 8G/	.	8g/	-rzyj	-frau,	.
.	8g/ 8e/ 8G/	.	8a/	na	Kannst	.
.	8g/J 8e/ 8G/	.	8cc\	nas	uns	.
=70	=70	=70	=70	=70	=70	=70
!	!	!	!LO:ACC:color=grey	!	!	!
4GG/ 4GGG/	8B-/L 8G/	.	8bn\	Ty	Hil-	.
.	8d/J 8B-/ 8G/	.	8a/	Pa-	-fe	.
4GG/ 4CC/	8en/L 8c/ 8G/	.	8g/	-nien-	sen-	.
.	8e/J 8c/ 8G/	.	8cc\	-ko	-den,	.
!!LO:LB:g=original
=71	=71	=71	=71	=71	=71	=71
4EEn\	8en/L 8Bn/ 8G/	.	4bn/	Prze-	du	.
.	8e/J 8B/ 8G/	.	.	.	.	.
8AA\L 8AAA\	8e/L 8c/ 8A/	.	(8a/L	-czy-	Rei-	.
8DD\J	8f#X/J 8d/ 8A/	.	8f#X/J)	.	.	.
=72	=72	=72	=72	=72	=72	=72
2GG\ 2GGG\	8g/L 8Bn/	.	4.g/	-sta	-ne,	.
.	8g/ 8G/	.	.	.	.	.
.	8g/ 8G/	.	.	.	.	.
.	8g/J 8G/	.	8r	.	.	.
=73	=73	=73	=73	=73	=73	=73
4G\	8g/L 8d/ 8Bn/	.	8g/	I	Mei-	.
.	8g/ 8d/ 8B/	.	8g/	nad	-nem	.
4GG\	8a/ 8e-/ 8c/	.	8a/	ser-	Jam-	.
.	8a/J 8e-/ 8c/	.	8cc\	-ca	-mer	.
=74	=74	=74	=74	=74	=74	=74
2G\	8b-/L 8g/ 8d/	.	8b-\	me-	dich	.
.	8cc/ 8g/ 8d/	.	8a/	-go	zu	.
.	8dd/ 8g/ 8d/	.	8g/	mę-	wen-	.
.	8dd/J 8b-/ 8g/ 8e-/	.	8b-/	-ką	-den,	.
=75	=75	=75	=75	=75	=75	=75
!	!LO:TX:t=P:problem=dodatkowa nuta ołówkiem	!	!	!	!	!
4GG\ 4GGG\yy	8dd/L 8b-/ 8g/ 8en/	.	8dd\	Ty	Mitt-	.
.	8dd/J 8b-/ 8g/ 8e/	.	8dd\	się	-lein,	.
!	!	!	!	!LO:MO:mod=zli-	!	!
4en\	8gg\L 8dd\ 8b-\	.	8en/	sli-	du	.
.	8gg\J 8dd\ 8b-\	.	8e/	-tuj	in	.
!!LO:LB:g=original
=76	=76	=76	=76	=76	=76	=76
!	!LO:TX:t=P:problem=dodatkowa nuta ołówkiem	!	!	!	!	!
4GG\ 4GGG\yy	8dd/L 8b-/ 8g/ 8en/	.	8dd\	o	Glo-	.
!	!	!	!	!LO:MO:mod=Gwieź-	!	!
.	8dd/J 8b-/ 8g/ 8e/	.	8dd\	gwieź-	-rien-	.
4en\	8gg\L 8dd\ 8b-\	.	8en/	-dzi-	-schei-	.
.	8gg\J 8dd\ 8b-\	.	8e/	-sta	-ne,	.
=77	=77	=77	=77	=77	=77	=77
!	!LO:TX:t=P:problem= znak Ped. ołówkiem	!	!	!	!	!
!	!LO:TX:t=P:problem=dodatkowa nuta ołówkiem	!	!	!	!	!
[<2G\ 2GG\yy	8ff\L 8cc#X\ 8a\	.	8a/	nie-	Kün-	.
.	8ff\J 8cc#\ 8g\	.	8a/	-bie-	-de-	.
.	8een\L 8cc#\ 8g\	.	8a/	-skie-	-rin	.
.	8ee\J 8cc#\ 8g\	.	8a/	-go	der	.
=78	=78	=78	=78	=78	=78	=78
2G\] 2AA\yy	8dd/L 8a/ 8f/	.	8dd\	dnia	Him-	.
.	8dd/J 8a/ 8f/	.	8dd\	ju-	-mels	.
.	8cc/L 8a-X/ 8f/	.	8cc\	-trze-	spen-	.
.	8cc/J 8a-/ 8f/	.	8cc\	-nko	-den,	.
=79	=79	=79	=79	=79	=79	=79
!	!LO:TX:t=P:problem=dodatkowa nutu ołówkiem	!	!	!	!	!
4GG\ 4GGG\yy	8cc/L 8a-X/ 8f/ 8d/	.	8cc\	Ty	Mit-	.
.	8cc/J 8a-/ 8f/ 8d/	.	8cc\	się	-leid,	.
4d^\	8ff\L 8cc\ 8a-\	.	8d/	zli-	du	.
.	8ff\J 8cc\ 8a-\	.	8d/	-tuj	in	.
=80	=80	=80	=80	=80	=80	=80
!	!LO:TX:t=P:problem=dodatkowa nuta ołówkiem	!	!	!	!	!
4GG\ 4GGG\yy	8cc/L 8a-X/ 8f/ 8d/	.	8cc\	o	Glo-	.
!	!	!	!	!LO:MO:mod=Gwieź-	!	!
.	8cc/J 8a-/ 8f/ 8d/	.	8cc\	gwie-	-rien-	.
!	!	!	!	!LO:MO:mod=-dzi-	!	!
4d\	8ff\L 8cc\ 8a-\	.	8d/	-ździ-	-sche-	.
.	8ff\J 8cc\ 8a-\	.	8d/	-sta	-ine	.
!!LO:PB:g=original
=81	=81	=81	=81	=81	=81	=81
[<2G\	8ee-/L 8bn/ 8g/	.	8g/	nie-	Kün-	.
.	8ee-/J 8b/ 8g/	.	8g/	-bie-	-de-	.
.	8dd/L 8b/ 8f/	.	8g/	-skie-	-rin	.
.	8dd/J 8b/ 8f/	.	8g/	-go	der	.
=82	=82	=82	=82	=82	=82	=82
!	!	!	!LO:MO:mod=!LO&colon;TX&colon;i&colon;t=rallent.	!	!	!
!	!	!	!LO:TX:a:t=rallent.	!	!	!
2G\]	8cc/L 8g/ 8e-/	.	8cc\	dnia	Him-	.
.	8cc/J 8g/ 8e-/	.	8cc\	ju-	-mels	.
.	8b-/L 8g/ 8d/	.	8b-/	-tzre-	spen-	.
.	8e-/J 8c/	.	8a/	-nko	-den!	.
=83	=83	=83	=83	=83	=83	=83
!!!OMD:
!!!OMD-mod: Più lento
*^	*	*	*	*	*	*
!LO:N:vis=x	!	!	!	!LO:TX:a:B:t=Piu lento.:mod=	!	!	!
4G/ 4D/	2GG\	4d/ 4B-/	.	8g/	O-	Schü-	.
.	.	.	.	8g/	-słoń	-tze	.
!LO:N:vis=x	!	!	!	!	!LO:MO:mod=Je-	!	!
4E-\	.	4c/ 4G</	.	8a/	je-	ihn	.
.	.	.	.	8cc\	-go	mit	.
=84	=84	=84	=84	=84	=84	=84	=84
!LO:N:vis=x	!	!	!	!	!LO:MO:mod=Two-	!	!
4G/ 4E-/	2GG\	4d/ 4B-</	.	8b-\	two-	dei-	.
.	.	.	.	8a/	-ją	-nen	.
!LO:N:vis=x	!	!	!	!	!	!	!
4E-/	.	4e-/ 4B-/ 4G</	.	8g/	rę-	Hän-	.
.	.	.	.	8a/	-ką	-den,	.
*v	*v	*	*	*	*	*	*
=85	=85	=85	=85	=85	=85	=85
4D\ 4FF\	4g/ 4d/ 4B-/ 4G/	.	4b-/	Prze-	du	.
4D\ 4DD\	4a/ 4f#X/ 4d/ 4A/	.	(8a/L	-czy-	Rei-	.
.	.	.	8f#X/J)	.	.	.
!!LO:LB:g=original
=86	=86	=86	=86	=86	=86	=86
!LO:SIC:s=8qqGGG	!	!	!	!	!	!
4qqGGG/	.	.	.	.	.	.
*2\right	*	*	*	*	*	*
2G:\ 2D:\ 2GG:\	2bn/: 2g/: 2d/: 2Bn;:/	.	4.g;/	-sta	-ne!	.
.	.	.	8r	.	.	.
==	==	==	==	==	==	==
*-	*-	*-	*-	*-	*-	*-
!!!system-decoration: s1{(s2,s3)}
!!!RDF**kern: > = above
!!!RDF**kern: < = below
!!LO:MO:ori
!!!RDF**dynam: < = cres
!!LO:MO:end
!!!ENC: Marta Opryszak
!!!END: 2021-12-03
!!!ENC: Leszek Kubiak
!!!END: 2022-01-04
!!!ENC-modern: Andrzej Borzym
!!!END-modern: 2022-08-30
!!!YEC: Copyright 2022 Narodowy Instytut Fryderyka Chopina (https://polishscores.org)
!!!YEM: License CC-BY-4.0 (https://creativecommons.org/licenses/by/4.0)
